X:03
T:Gavotte. ET.03
M:2/4
L:1/8
Q:1/4=120
S:Eliza Tennyson MS, Lincolnshire,1822
R:gavotte
N:No time sign in MS
O:England;Lincolnshire;Somersby
Z:vmp.R.Greig 2011 <http://www.village-music-project.org.uk>
K:A
(3EFG|A2A2|A3B/c/”^bar line added”|dcBA|GFGE|!
A2A2|A3B/c/”bar line added”|BAGF|E2E||!
G|BB/c/ dB|GBGB|AA/B/ cA|EAEA|!
BB/c/ dB|GBGB|AA/c/ dA|EAEA|!
EGBG|dBGE|A2A2|A2:|!
K:Bm
“^MINORE””_sic”A/|d2d2|d3e/f/”^bar line added”|gfed|cBcA|!
d2d2|d3e/f/|edcB|A3||!
ee/f/ ge|cece|dd/e/ fd|AdAd|!
ee/f/ ge|cece|dd/e/ fd|AdAd|!
Acec|gecA|d2d2|d2″$”:|

